X:1
T:Resve-ie point?
T:Bonard
T:Source : Livre X de 26 chansons nouvelles à 4 parties---Paris---N.du Chemin---1552. Editor : André Vierendeels  (16/04/18). Notes : Original clefs : C1, C3, C4, F4 Original note values have been halved Editorial accidentals above the staff. Square bracket indicates ligature
T:#
T:Resve-ie point?
T:©
T:©
T:©
T:©
C:Bonard
Z:©
%%score [ 1 [ 2 3 ] 4 ]
L:1/8
Q:1/4=120
M:2/2
K:F
V:1 treble nm="Alto" snm="A"
V:2 treble-8 nm="Tenor 1" snm="T 1"
V:3 treble-8 nm="Tenor 2" snm="T 2"
V:4 bass nm="Bass" snm="B"
V:1
 z2 A2 A2 A2 | G4 z2 E2 | c2 B2 A2 G2 | F2 G4 F2 | G4 A4 | G2 FE F2 F2 | E2 E2 D2 C2 | G2 B2 AGFE | %8
w: Res- ve- ie|point? Dieu,|est- ce point un|son- * *|ge, dont|tant de _ fois, vous|m'a- vez a- mu-||
w: Las, est- ce|point u-|ne fa- ble'ou men-|son- * *|ge, dont|mon _ _ _ de-|sir m'ait ain- si|a- bu- * * * *|
 F2 G3 F F2- |[M:2/4] F2 E2 |1 F4 :|2[M:2/2] F2 A4 z2 || G3 F GA B2 | A2 G4 F2 | G2 G2 F2 E2 | %15
w: ||sé?|sé? Non,|il _ _ _ _|est vray: mais|si ie suis ex-|
w: |||||||
 D6 E2 | F8 | E4 z2 B2 | B2 A2 G4 | G4 F2 F2 | F2 E2 D4 | E2 z A G2 F2 | B4 A4 | A3 G F2 G2 | %24
w: cu- *||sé: car|qui au- roit|le quart de|la for- tu-|ne, que ie me|sentz pour|du tout es- tre'à|
w: |||||||||
 E2 DC D4 | E2 z G G2 G2 | A6 G2 | F2 E2 D2 D2 | C8 |: z2 A2 A2 A2 | G4 z2 F2 | c2 B2 A2 G2 | %32
w: u- * * *|ne, et d'el- le|voir mon|ser- vi- c'es- ti-|mer,|hom- me ne|sçay tant|bra- ve soubz la|
w: ||||||||
"^#" F2 G4 F2 | G4 A4 | G2 FE F2 F2 | E2 E2 D2 C2 | G2 B2 AGFE | F2 G4 F2- | F2 E2 F4- | F8 :| %40
w: Lu- * *|ne, qui|ne _ _ _ doub-|tast de soy trop|pre- * * * * *||* su- mer.|_|
w: ||||||||
V:2
 z2 f2 f2 f2 | e4 z2 c2- | c2 f2 f2 d2 | d2 c2 d4 | z2 d2 f3 e | d2 c2 c4- | c4 z2 A2 | %7
w: Res- ve- ie|point? Dieu,|_ est- ce point|un son- ge,|dont tant _|_ de fois,|_ vous|
w: Las, est- ce|point u-|* ne fa- ble'ou|men- son- ge,|dont mon _|_ de- sir|_ m'ait|
 B2 G2 A3 B | c2 G2 d2 B2 |[M:2/4] c4 |1 A4 :|2[M:2/2] A2 f4 e2 || z2 _e4 f2 | f2 d2 d4 | %14
w: m'a- vez a- *|* mu- * *||sé?|sé, Non, non,|non, non,|il est vray:|
w: ain- si a- *||bu-|||||
 z2 d2 d2 c2 | B4 A2 c2- | cBAG F4 | G2 c2 c2 B2 | d2 f2 e2 e2 | d3 cdG d2- |"^-natural" d2 c4 B2 | %21
w: mais si suis-|ie ex- cu-||sé: car qui au-|roit le quart de|la _ _ _ for-|* tu- *|
w: |||||||
 c2 z c _e2 d2 | d2 d2 d2 d2 | f3 e dc d2- |"^-natural" dc c4 B2 | c2 e2 e2 e2 | f6 d2 | %27
w: ne que ie me|sentz pour du tout|es- * * * stre'à-|* * u- *|ne, et d'el- le|voir mon|
w: ||||||
 d2 c2 A2 B2 | G4 A4 |: z2 f2 f2 f2 | e4 z2 c2- | c2 f2 f2 d2 | d2 c2 d4 | z2 d2 f3 e | d2 c2 c4- | %35
w: ser- vi- c'es- *|ti- mer,|hom- me ne|sçay tant|_ bra- ve soubz|la Lu- ne,|qui ne _|_ doub- tast|
w: ||||||||
 c4 z2 A2 | B2 G2 A3 B | c2 G2 d2 B2 | c4 c4- | c8 :| %40
w: _ de|soy trop pre- *|* su- * *|* mer.|_|
w: |||||
V:3
 z2 c2 c2 c2 | c4 z2 A2- | A2 d2 c2 B2 | A2 G2 A4 | G4 z2 c2 | B2 AG A2 A2 | G4 z2 C2 | %7
w: Res- ve- ie|point? Dieu,|_ est- ce point|un son- *|ge, dont|tant _ _ _ de|fois, vous|
w: Las, est- ce|point u-|* ne fa- ble'ou|men- son- *|ge, dont|mon _ _ _ de-|sir m'ait|
 D2 E2 FEFG | A2 B3 AGF |[M:2/4] G4 |1 F4 :|2[M:2/2] F2 F2 c2 z2 || B3 A BcdB | cBAG A2 A2 | %14
w: m'a- vez a- * * *|* mu- * * *||sé?|sé? Non, non,|il _ _ _ _ _|_ _ _ _ _ est|
w: ain- si a- * * *||bu-|||||
 G2 B2 B2 G2 | G2 FE F2 G2 | AB c4 B2 | c4 z2 G2 | G2 F2 c4 | G4 B2 B2 | F2 C2 G4 | C2 z F C2 D2 | %22
w: vray: mais si suis-|ie ex- * * *|* * * cu-|sé: car|qui au- roit|le quart de|la for- tu-|ne, que ie me|
w: ||||||||
 G4 z2 F2 | F2 F2 B2 G2 | A4 G4 | C4 z2 c2 | c2 c2 A2 B2- | BA G3 F F2- | F2 E2 F4 |: z2 c2 c2 c2 | %30
w: sentz pour|du tout es- tre'à|u- *|ne, et|d'el- le voir mon|_ ser- vi- * c'es-|* ti- mer,|hom- me ne|
w: ||||||||
 c4 z2 A2- | A2 d2 c2 B2 | A2 G2 A4 | G4 z2 c2 | B2 AG A2 A2 | G4 z2 C2 | D2 E2 FEFG | A2 B3 A GF | %38
w: sçay tant|_ bra- ve soubz|la Lu- *|ne, qui|ne _ _ _ doub-|tast de|soy trop pre- * * *||
w: ||||||||
 G4 F4- | F8 :| %40
w: su- mer.|_|
w: ||
V:4
 z2 F,2 F,2 F,2 | C,4 C,2 F,2- | F,2 B,,2 F,2 G,2 | D,2 E,2 D,4 | G,,4 F,,4 | B,,2 C,2 F,,4 | %6
w: Res- ve- ie|point? Dieu, est-|* ce point un|son- * *|ge, dont|tant de fois,|
w: Las, est- ce|point u- ne|_ fa- ble'ou men-|son- * *|ge, dont|mon de- sir|
 C,4 B,,2 A,,2 | G,,2 G,,2 F,,2 F,2 |"^b" F,2 E,2 D,4 |[M:2/4] C,4 |1 F,,4 :|2 %11
w: vous m'a- vez|a- mu- sé, vous|m'a- vez a-|mu-|sé?|
w: m'ait ain- si|a- bu- sé? M'ait|ain- si a-|bu-||
[M:2/2] F,,4 F,,2 C,2 || z2 _E,4 B,,2 | F,2 G,2 D,4 | G,,2 G,,2 B,,2 C,2 | G,,A,,B,,C, D,2 C,2 | %16
w: sé? Non, non,|non, non,|non, il est|vray, mais si suis-|ie _ _ _ _ ex-|
w: |||||
 F,3 E, D,4 |"^-natural" C,4 z4 | z8 | z8 | z8 | z8 | z8 | z8 | z8 | z2 C,2 C,2 C,2 | F,,6 G,,2 | %27
w: cu- * *|sé:||||||||et d'el- le|voir mon|
w: |||||||||||
 B,,2 C,2 D,2 B,,2 | C,4 F,,4 |: z2 F,2 F,2 F,2 | C,4 C,2 F,2- | F,2 B,,2 F,2 G,2 | D,2 E,2 D,4 | %33
w: ser- vi- c'es- *|ti- mer,|hom- me ne|sçay tant bra-|* ve soubz la|Lu- * *|
w: ||||||
 G,,4 F,,4 | B,,2 C,2 F,,4 | C,4 B,,2 A,,2 | G,,2 G,,2 F,,2 F,2 |"^b" F,2 E,2 D,4 | C,4 F,,4- | %39
w: ne, qui|ne doub- tast|de soy trop|pre- su- mer de|soy trop pre-|su- mer.|
w: ||||||
 F,,8 :| %40
w: _|
w: |

